; generated by PrusaSlicer 2.9.2 on 2025-08-28 at 22:00:00 UTC


;
;
; 

; external perimeters extrusion width = 0.45mm
; perimeters extrusion width = 0.45mm
; infill extrusion width = 0.45mm
; solid infill extrusion width = 0.45mm
; top infill extrusion width = 0.40mm
; first layer extrusion width = 0.42mm

; external perimeters extrusion width = 0.45mm
; perimeters extrusion width = 0.45mm
; infill extrusion width = 0.45mm
; solid infill extrusion width = 0.45mm
; top infill extrusion width = 0.40mm
; first layer extrusion width = 0.42mm

M73 P0 R40
M73 C29
M73 Q0 S40
M73 D29
M201 X1000 Y1000 Z200 E5000 ; sets maximum accelerations, mm/sec^2
M203 X200 Y200 Z12 E120 ; sets maximum feedrates, mm / sec
M204 S1250 T1250 ; sets acceleration (S) and retract acceleration (R), mm/sec^2
M205 X8.00 Y8.00 Z0.40 E4.50 ; sets the jerk limits, mm/sec
M205 S0 T0 ; sets the minimum extruding and travel feed rate, mm/sec

; printing object mouthpad_usb_outer.stl id:1 copy 0
; stop printing object mouthpad_usb_outer.stl id:1 copy 0
; printing object mouthpad_usb_inner.stl id:0 copy 0
; stop printing object mouthpad_usb_inner.stl id:0 copy 0

;TYPE:Custom
M862.3 P "MK3S" ; printer model check
M862.1 P0.4 ; nozzle diameter check
M115 U3.11.0 ; tell printer latest fw version
G90 ; use absolute coordinates
M83 ; extruder relative mode
M104 S215 ; set extruder temp
M140 S60 ; set bed temp
M190 S60 ; wait for bed temp
M109 S215 ; wait for extruder temp
G28 W ; home all without mesh bed level
G80 ; mesh bed leveling

G1 Z0.2 F720
G1 Y-3 F1000 ; go outside print area
G92 E0
G1 X60 E9 F1000 ; intro line
G1 X100 E12.5 F1000 ; intro line

G92 E0
M221 S95

; Don't change E values below. Excessive value can damage the printer.
M907 E430 ; set extruder motor current
G21 ; set units to millimeters
G90 ; use absolute coordinates
M83 ; use relative distances for extrusion

M900 K0.05 ; Filament gcode LA 1.5
M900 K30 ; Filament gcode LA 1.0




M107
;LAYER_CHANGE
;Z:0.2
;HEIGHT:0.2
G1 E-.8 F2100
G1 Z.6 F720
G1 X102.275 Y81.222 F10800
G1 Z.2 F720
G1 E.8 F2100
M204 S800
;TYPE:Skirt/Brim
;WIDTH:0.42
G1 F1200
G1 X103.308 Y80.419 E.04102
G1 X104.073 Y80.281 E.02437
G1 X123.472 Y80.281 E.60824
G1 X158.198 Y84.169 E1.09561
G1 X158.898 Y84.358 E.02273
G1 X159.608 Y84.705 E.02478
G1 X160.249 Y85.166 E.02476
G1 X160.803 Y85.728 E.02474
G1 X161.439 Y86.725 E.03708
G1 X161.805 Y87.85 E.03709
G1 X163.492 Y98.417 E.33552
G1 X163.487 Y103.269 E.15213
G1 X161.884 Y126.295 E.72371
G1 X161.407 Y127.513 E.04101
M73 P0 R39
G1 X160.393 Y128.219 E.03874
G1 X157.396 Y129.219 E.09906
G1 X156.867 Y129.326 E.01692
G1 X121.722 Y131.951 E1.10502
G1 X105.747 Y131.946 E.50088
G1 X104.879 Y131.784 E.02769
G1 X104.061 Y131.443 E.02779
G1 X103.34 Y130.944 E.02749
G1 X102.791 Y130.372 E.02486
G1 X102.408 Y129.798 E.02164
G1 X102.127 Y129.174 E.02146
G1 X101.949 Y128.503 E.02177
G1 X101.884 Y127.77 E.02307
G1 X101.884 Y82.47 E1.42035
G1 X102.257 Y81.279 E.03913
M204 S1000
;WIPE_START
G1 F8640
G1 X102.275 Y81.222 E-.0138
G1 X103.308 Y80.419 E-.30211
G1 X104.073 Y80.281 E-.17949
G1 X105.392 Y80.281 E-.3046
;WIPE_END
G1 Z.6 F720
; printing object mouthpad_usb_inner.stl id:0 copy 0
G1 X155.693 Y104.666 F10800
G1 Z.2 F720
G1 E.8 F2100
M204 S800
;TYPE:External perimeter
;WIDTH:0.419999
G1 F1200
G1 X155.714 Y104.65 E.00083
G1 X155.877 Y104.55 E.006
G1 X156.346 Y104.463 E.01496
G1 X156.574 Y104.495 E.00722
G1 X157.046 Y104.728 E.0165
G1 X157.367 Y105.147 E.01655
G1 X157.471 Y105.651 E.01614
G1 X157.401 Y106.012 E.01153
G1 X157.115 Y106.454 E.01651
G1 X156.677 Y106.722 E.0161
G1 X156.313 Y106.778 E.01155
G1 X155.811 Y106.667 E.01612
G1 X155.52 Y106.468 E.01105
G1 X155.297 Y106.176 E.01152
G1 X155.156 Y105.668 E.01653
G1 X155.248 Y105.162 E.01613
G1 X155.448 Y104.853 E.01154
G1 X155.645 Y104.703 E.00776
M204 S1000
;WIPE_START
G1 F8640
G1 X155.693 Y104.666 E-.01399
G1 X155.714 Y104.65 E-.0061
G1 X155.877 Y104.55 E-.04416
G1 X156.346 Y104.463 E-.11014
G1 X156.574 Y104.495 E-.05316
G1 X157.046 Y104.728 E-.12154
G1 X157.367 Y105.147 E-.12188
G1 X157.471 Y105.651 E-.11883
G1 X157.401 Y106.012 E-.08491
G1 X157.115 Y106.454 E-.12156
G1 X157.101 Y106.462 E-.00373
;WIPE_END
G1 Z.6 F720
G1 X154.828 Y107.06 F10800
G1 Z.2 F720
G1 E.8 F2100
M204 S800
G1 F1200
G1 X155.07 Y107.322 E.01118
G1 X155.118 Y107.422 E.00348
G1 X154.996 Y107.799 E.01242
G1 X154.821 Y107.917 E.00662
G1 X143.285 Y107.917 E.3617
G1 X143.16 Y107.87 E.00419
G1 X143.097 Y107.729 E.00484
G1 X143.097 Y88.122 E.61476
G1 X143.154 Y87.987 E.00459
G1 X143.317 Y87.933 E.00538
G1 X157.922 Y87.933 E.45793
G1 X158.064 Y87.998 E.0049
G1 X158.111 Y88.122 E.00416
G1 X158.111 Y96.939 E.27645
G1 X158.035 Y97.09 E.0053
G1 X157.778 Y97.127 E.00814
G1 X155.947 Y97.127 E.05741
G1 X155.947 Y103.399 E.19665
G1 X155.873 Y103.548 E.00522
G1 X155.14 Y103.898 E.02547
G1 X154.748 Y104.247 E.01646
G1 X154.459 Y104.671 E.01609
G1 X154.276 Y105.172 E.01672
G1 X154.238 Y105.623 E.01419
G1 X154.27 Y106.046 E.0133
G1 X154.37 Y106.376 E.01081
G1 X154.632 Y106.848 E.01693
G1 X154.788 Y107.016 E.00719
M204 S1000
;WIPE_START
G1 F8640
G1 X154.828 Y107.06 E-.01373
G1 X155.07 Y107.322 E-.08235
G1 X155.118 Y107.422 E-.02561
G1 X154.996 Y107.799 E-.09149
G1 X154.821 Y107.917 E-.04874
G1 X152.491 Y107.917 E-.53808
;WIPE_END
G1 Z.6 F720
G1 X142.911 Y109.183 F10800
G1 Z.2 F720
G1 E.8 F2100
M204 S800
G1 F1200
G1 X142.958 Y109.113 E.00264
G1 X143.285 Y109.097 E.01027
G1 X158.175 Y109.097 E.46686
G1 X158.288 Y109.135 E.00374
M73 Q1 S40
G1 X158.364 Y109.286 E.0053
G1 X158.364 Y123.365 E.44144
G1 X158.291 Y123.514 E.0052
M73 P1 R39
G1 X158.175 Y123.553 E.00384
G1 X143.032 Y123.553 E.4748
G1 X142.917 Y123.514 E.00381
M73 Q1 S39
G1 X142.847 Y123.397 E.00427
G1 X142.844 Y109.286 E.44244
G1 X142.878 Y109.233 E.00197
M204 S1000
;WIPE_START
G1 F8640
G1 X142.911 Y109.183 E-.01383
G1 X142.958 Y109.113 E-.01947
G1 X143.285 Y109.097 E-.0756
G1 X146.278 Y109.097 E-.6911
;WIPE_END
G1 Z.6 F720
G1 X142.659 Y87.871 F10800
G1 Z.2 F720
G1 E.8 F2100
M204 S800
;TYPE:Perimeter
;WIDTH:0.638894
G1 F1200
G1 X142.818 Y87.642 E.01382
M204 S1000
;WIPE_START
G1 F8640
G1 X142.659 Y87.871 E-.06437
;WIPE_END
G1 E-.73563 F2100
G1 Z.6 F720
G1 X158.419 Y87.689 F10800
G1 Z.2 F720
G1 E.8 F2100
M204 S800
;WIDTH:0.607258
G1 F1200
G1 X158.318 Y87.637 E.00533
;WIDTH:0.559578
G1 X158.217 Y87.586 E.00486
;WIDTH:0.511898
G1 X157.979 Y87.565 E.00932
;WIDTH:0.478139
G1 X157.742 Y87.544 E.00861
;WIDTH:0.44438
G1 X143.441 Y87.544 E.47739
;WIDTH:0.490092
G1 X143.202 Y87.566 E.00892
;WIDTH:0.535828
G1 X142.962 Y87.589 E.00988
;WIDTH:0.582434
G1 X142.89 Y87.615 E.00343
;WIDTH:0.62904
G1 X142.818 Y87.642 E.00375
G1 X142.858 Y87.585 E.00339
;WIDTH:0.584825
G1 X142.899 Y87.528 E.00316
;WIDTH:0.54061
G1 X142.94 Y87.47 E.00294
;WIDTH:0.496395
G1 X142.981 Y87.413 E.00265
;WIDTH:0.45218
G1 X143.022 Y87.356 E.00239
;WIDTH:0.407965
G1 X143.063 Y87.298 E.00216
;WIDTH:0.410908
G1 X143.183 Y87.224 E.00431
;WIDTH:0.44438
G1 X143.441 Y87.143 E.00903
G1 X157.742 Y87.143 E.47739
G1 X158.097 Y87.288 E.0128
;WIDTH:0.478139
G1 X158.194 Y87.38 E.00484
;WIDTH:0.511898
G1 X158.291 Y87.472 E.00521
;WIDTH:0.559578
G1 X158.355 Y87.58 E.00539
;WIDTH:0.607258
G1 X158.389 Y87.637 E.00311
M204 S1000
G1 X158.419 Y87.689 F10800
M204 S800
;WIDTH:0.644694
G1 F1200
G1 X158.563 Y87.901 E.01282
M204 S1000
;WIPE_START
G1 F8640
G1 X158.419 Y87.689 E-.05918
;WIPE_END
G1 E-.74082 F2100
G1 Z.6 F720
G1 X155.272 Y106.863 F10800
G1 Z.2 F720
M73 C28
G1 E.8 F2100
M204 S800
;WIDTH:0.588414
G1 F1200
G1 X154.959 Y106.512 E.02133
;WIDTH:0.61615
G1 X154.793 Y106.159 E.01859
G1 X154.7 Y105.731 E.02088
;WIDTH:0.611578
G1 X154.743 Y105.247 E.02298
G1 X154.895 Y104.84 E.02054
;WIDTH:0.60193
G1 X155.165 Y104.483 E.02081
;WIDTH:0.597922
G1 X155.551 Y104.201 E.02206
;WIDTH:0.587218
G1 X155.786 Y104.098 E.01161
M204 S1000
;WIPE_START
G1 F8640
G1 X155.551 Y104.201 E-.05925
G1 X155.165 Y104.483 E-.11038
G1 X154.895 Y104.84 E-.10335
G1 X154.743 Y105.247 E-.10032
G1 X154.7 Y105.731 E-.1122
G1 X154.793 Y106.159 E-.10113
G1 X154.959 Y106.512 E-.09007
G1 X155.272 Y106.863 E-.10859
;WIPE_END
G1 E-.01471 F2100
G1 Z.6 F720
G1 Z.2
G1 E.8 F2100
M204 S800
;WIDTH:0.585302
G1 F1200
G1 X155.382 Y106.906 E.00533
;WIDTH:0.53712
G1 X155.491 Y106.949 E.00482
;WIDTH:0.488937
G1 X155.601 Y106.992 E.00438
;WIDTH:0.440754
G1 X156.241 Y107.149 E.0218
;WIDTH:0.419999
G1 X156.457 Y107.149 E.00677
G1 X156.948 Y107.012 E.01598
G1 X157.292 Y106.789 E.01285
G1 X157.499 Y106.585 E.00911
G1 X157.725 Y106.204 E.01389
G1 X157.796 Y106.013 E.00639
G1 X157.85 Y105.622 E.01238
G1 X157.734 Y105.06 E.01799
G1 X157.619 Y104.829 E.00809
G1 X157.337 Y104.488 E.01387
G1 X157.132 Y104.332 E.00808
G1 X156.728 Y104.151 E.01388
G1 X156.383 Y104.088 E.011
;WIDTH:0.461804
G1 X156.233 Y104.091 E.00523
;WIDTH:0.503609
G1 X156.084 Y104.093 E.00571
;WIDTH:0.545414
G1 X155.935 Y104.096 E.00623
;WIDTH:0.587218
G1 X155.786 Y104.098 E.00674
G1 X155.865 Y104.036 E.00455
;WIDTH:0.545414
G1 X155.944 Y103.973 E.00422
;WIDTH:0.503609
G1 X156.023 Y103.91 E.00387
;WIDTH:0.461804
G1 X156.103 Y103.847 E.00355
;WIDTH:0.419999
G1 X156.275 Y103.629 E.00871
G1 X156.324 Y103.399 E.00737
G1 X156.324 Y97.504 E.18483
G1 X157.922 Y97.504 E.0501
G1 X158.261 Y97.391 E.0112
;WIDTH:0.449611
G1 X158.494 Y97.039 E.01427
G1 X158.5 Y96.939 E.00339
;WIDTH:0.443717
G1 X158.498 Y88.601 E.27788
;WIDTH:0.440235
G1 X158.487 Y88.346 E.00843
;WIDTH:0.463881
G1 X158.502 Y88.257 E.00316
;WIDTH:0.509084
G1 X158.517 Y88.168 E.0035
;WIDTH:0.554288
G1 X158.533 Y88.079 E.00384
;WIDTH:0.599491
G1 X158.548 Y87.99 E.00418
;WIDTH:0.644694
G1 X158.563 Y87.901 E.00452
G1 X158.611 Y87.949 E.0034
;WIDTH:0.607563
G1 X158.658 Y87.996 E.00312
;WIDTH:0.570431
G1 X158.706 Y88.044 E.00298
;WIDTH:0.533299
G1 X158.755 Y88.124 E.00383
;WIDTH:0.495092
G1 X158.803 Y88.204 E.00351
;WIDTH:0.456885
G1 X158.852 Y88.284 E.00323
;WIDTH:0.440235
G1 X158.895 Y88.601 E.01057
;WIDTH:0.443717
G1 X158.9 Y96.939 E.27788
;WIDTH:0.449611
G1 X158.913 Y97.717 E.02631
;WIDTH:0.419999
G1 X158.914 Y98.639 E.02891
G1 X159.012 Y98.957 E.01043
G1 X159.193 Y99.126 E.00776
G1 X159.479 Y99.204 E.00929
G1 X160.517 Y99.204 E.03255
G1 X160.517 Y100.242 E.03255
G1 X160.517 Y102.33 E.06547
G1 X159.479 Y102.33 E.03255
G1 X159.323 Y102.352 E.00494
G1 X159.057 Y102.519 E.00985
G1 X158.953 Y102.688 E.00622
G1 X158.914 Y102.896 E.00664
G1 X158.914 Y108.634 E.17991
;WIDTH:0.46321
G1 X158.892 Y108.797 E.00575
;WIDTH:0.506421
G1 X158.87 Y108.96 E.00634
;WIDTH:0.549632
G1 X158.849 Y109.123 E.00692
;WIDTH:0.592842
G1 X158.827 Y109.286 E.00752
G1 X158.749 Y109.173 E.00628
;WIDTH:0.549632
G1 X158.671 Y109.06 E.00579
;WIDTH:0.506421
G1 X158.593 Y108.947 E.00529
;WIDTH:0.46321
G1 X158.514 Y108.833 E.00485
;WIDTH:0.419999
G1 X158.175 Y108.72 E.0112
G1 X155.876 Y108.72 E.07208
;WIDTH:0.444404
G1 X143.285 Y108.708 E.42033
;WIDTH:0.483515
G1 X143.157 Y108.702 E.00469
;WIDTH:0.522626
G1 X143.029 Y108.696 E.00511
;WIDTH:0.561737
G1 X142.901 Y108.689 E.00553
;WIDTH:0.600847
G1 X142.773 Y108.683 E.00594
G1 X142.38 Y109.286 E.03339
G1 X142.384 Y108.427 E.03985
G1 X142.365 Y108.252 E.00817
;WIDTH:0.561731
G1 X142.345 Y108.078 E.00756
;WIDTH:0.522614
G1 X142.326 Y107.903 E.00702
;WIDTH:0.483498
G1 X142.306 Y107.729 E.00642
;WIDTH:0.444381
G1 X142.306 Y88.745 E.63372
G1 X142.35 Y88.278 E.01566
;WIDTH:0.452884
G1 X142.402 Y88.18 E.00378
;WIDTH:0.489596
G1 X142.454 Y88.082 E.00412
;WIDTH:0.539362
G1 X142.522 Y88.012 E.00403
;WIDTH:0.589128
G1 X142.59 Y87.941 E.00447
;WIDTH:0.638894
G1 X142.659 Y87.871 E.00487
G1 X142.671 Y87.957 E.0043
;WIDTH:0.59435
G1 X142.684 Y88.043 E.00399
;WIDTH:0.549806
G1 X142.696 Y88.129 E.00366
;WIDTH:0.505261
G1 X142.709 Y88.216 E.00338
;WIDTH:0.460717
G1 X142.722 Y88.302 E.00302
;WIDTH:0.444381
G1 X142.708 Y88.745 E.0148
G1 X142.708 Y107.729 E.63372
;WIDTH:0.483498
G1 X142.743 Y107.851 E.00465
;WIDTH:0.522614
G1 X142.778 Y107.974 E.0051
;WIDTH:0.561731
G1 X142.814 Y108.096 E.00549
;WIDTH:0.600847
G1 X142.849 Y108.219 E.00593
G1 X142.958 Y108.241 E.00516
;WIDTH:0.561737
G1 X143.067 Y108.263 E.0048
;WIDTH:0.522626
G1 X143.176 Y108.285 E.00444
;WIDTH:0.483515
G1 X143.285 Y108.307 E.00407
;WIDTH:0.444404
G1 X154.821 Y108.307 E.38511
;WIDTH:0.450279
G1 X154.921 Y108.301 E.00339
G1 X155.346 Y107.938 E.01893
;WIDTH:0.419999
G1 X155.457 Y107.66 E.00939
G1 X155.491 Y107.366 E.00928
;WIDTH:0.440754
G1 X155.428 Y107.158 E.00719
;WIDTH:0.488937
G1 X155.376 Y107.06 E.00411
;WIDTH:0.53712
G1 X155.324 Y106.961 E.0046
;WIDTH:0.585302
G1 X155.3 Y106.916 E.0023
M204 S1000
;WIPE_START
G1 F8640
G1 X155.272 Y106.863 E-.01384
G1 X155.382 Y106.906 E-.02727
G1 X155.491 Y106.949 E-.02706
G1 X155.601 Y106.992 E-.02727
G1 X156.241 Y107.149 E-.15216
G1 X156.457 Y107.149 E-.04987
G1 X156.948 Y107.012 E-.1177
G1 X157.292 Y106.789 E-.09466
G1 X157.499 Y106.585 E-.06711
G1 X157.725 Y106.204 E-.10229
G1 X157.796 Y106.013 E-.04705
G1 X157.84 Y105.697 E-.07372
;WIPE_END
G1 Z.6 F720
G1 X142.385 Y123.478 F10800
G1 Z.2 F720
G1 E.8 F2100
M204 S800
;WIDTH:0.602722
G1 F1200
G1 X142.46 Y123.562 E.00524
;WIDTH:0.557042
G1 X142.536 Y123.645 E.00481
;WIDTH:0.511361
G1 X142.611 Y123.729 E.00439
;WIDTH:0.46568
G1 X142.686 Y123.812 E.00393
;WIDTH:0.419999
G1 X143.032 Y123.93 E.01146
G1 X158.175 Y123.93 E.4748
G1 X158.522 Y123.812 E.01149
;WIDTH:0.46568
G1 X158.597 Y123.729 E.00393
;WIDTH:0.511361
G1 X158.672 Y123.645 E.00439
;WIDTH:0.557042
G1 X158.747 Y123.562 E.00478
;WIDTH:0.602722
G1 X158.822 Y123.478 E.00524
G1 X158.845 Y123.61 E.00624
;WIDTH:0.557042
G1 X158.868 Y123.741 E.00569
;WIDTH:0.511361
G1 X158.891 Y123.873 E.00522
;WIDTH:0.46568
G1 X158.914 Y124.004 E.00468
;WIDTH:0.419999
G1 X158.914 Y125.356 E.04239
G1 X156.482 Y125.356 E.07625
G1 X156.16 Y125.457 E.01058
G1 X155.974 Y125.674 E.00896
G1 X155.917 Y125.922 E.00798
G1 X155.917 Y126.356 E.01361
G1 X145.291 Y126.356 E.33317
G1 X145.291 Y125.922 E.01361
G1 X145.234 Y125.674 E.00798
G1 X145.047 Y125.457 E.00898
G1 X144.725 Y125.356 E.01058
G1 X142.294 Y125.356 E.07622
G1 X142.294 Y124.004 E.04239
;WIDTH:0.46568
G1 X142.317 Y123.873 E.00468
;WIDTH:0.511361
G1 X142.34 Y123.741 E.00522
;WIDTH:0.557042
G1 X142.362 Y123.61 E.00568
;WIDTH:0.602722
G1 X142.375 Y123.537 E.00345
M204 S1000
G1 X142.385 Y123.478 F10800
M204 S800
G1 F1200
G1 X142.38 Y123.365 E.00527
;WIDTH:0.592842
G1 X142.38 Y109.286 E.64378
M204 S1000
;WIPE_START
G1 F8640
G1 X142.38 Y112.751 E-.8
;WIPE_END
G1 Z.6 F720
G1 X158.827 Y109.286 F10800
G1 Z.2 F720
G1 E.8 F2100
M204 S800
G1 F1200
G1 X158.827 Y123.365 E.64378
;WIDTH:0.602722
G1 X158.822 Y123.478 E.00527
M73 D28
M204 S1000
;WIPE_START
G1 F8640
G1 X158.827 Y123.365 E-.02612
G1 X158.827 Y120.013 E-.77388
;WIPE_END
G1 Z.6 F720
G1 X159.377 Y102.753 F10800
G1 Z.2 F720
G1 E.8 F2100
M204 S800
;TYPE:External perimeter
;WIDTH:0.419999
G1 F1200
G1 X159.338 Y102.77 E.00133
G1 X159.291 Y102.896 E.00422
G1 X159.291 Y125.733 E.71604
G1 X156.482 Y125.733 E.08807
G1 X156.375 Y125.767 E.00352
G1 X156.294 Y125.922 E.00548
G1 X156.294 Y126.733 E.02543
G1 X144.914 Y126.733 E.35681
G1 X144.914 Y125.922 E.02543
G1 X144.833 Y125.767 E.00548
G1 X144.725 Y125.733 E.00355
G1 X141.917 Y125.733 E.08804
G1 X141.917 Y88.745 E1.15973
G1 X141.978 Y88.231 E.01623
G1 X142.066 Y87.944 E.00941
G1 X142.306 Y87.516 E.01539
G1 X142.576 Y87.195 E.01315
G1 X142.976 Y86.914 E.01533
G1 X143.328 Y86.753 E.01214
G1 X157.873 Y86.753 E.45605
G1 X158.262 Y86.935 E.01347
G1 X158.621 Y87.204 E.01407
G1 X158.991 Y87.664 E.01851
G1 X159.207 Y88.159 E.01693
G1 X159.282 Y88.551 E.01251
G1 X159.291 Y98.655 E.3168
G1 X159.384 Y98.801 E.00543
G1 X159.479 Y98.827 E.00309
G1 X160.894 Y98.827 E.04437
G1 X160.894 Y100.242 E.04437
G1 X160.894 Y102.707 E.07729
G1 X159.479 Y102.707 E.04437
G1 X159.432 Y102.728 E.00161
M204 S1000
;WIPE_START
G1 F8640
G1 X159.377 Y102.753 E-.01395
G1 X159.338 Y102.77 E-.00982
G1 X159.291 Y102.896 E-.03105
G1 X159.291 Y106.123 E-.74518
;WIPE_END
G1 Z.6 F720
G1 X158.209 Y97.578 F10800
G1 Z.2 F720
G1 E.8 F2100
M204 S800
;TYPE:Solid infill
;WIDTH:0.424713
G1 F1200
G1 X158.745 Y98.113 E.02404
M204 S1000
;WIPE_START
